X: 3285
T: Spring Forkért
B:[[Notböcker/Melodier til gamle danske Almuedanse for Violin solo]]
O:Danmark
Z:Søren Bak Vestergaard
M: 2/4
L: 1/8
K: D
Ad cd|ef df|Ad cd|(ef) d2|Ad cd|ef df|Ad cd|(ef) d2||\
eg fd|ec a2|eg fd|ec d2|eg fd|ec a2|eg fd|ec d2|]
(:musicend:)
(:music:)
